X:1
T:Title
%%score { ( 1 3 ) | ( 2 4 ) }
L:1/8
Q:1/4=108
M:4/4
K:F
V:1 treble nm="Grand Piano"
V:3 treble 
V:2 bass 
V:4 bass 
V:1
 c2 A>G F2 d2 | c4 A2 A>A | [EG]2 [EG]2 [Ec]2 [EB]2 | [FA]6 [FA]>[GB] | %4
w: H.~Kingsbury * * * *||||
 [Ac]2 [FA]>[GB] [Ac]2 [Bd]2 | [Ac]4 A2 A>A | G2 c2 =B2 d2 | [Ec]6 z2 | %8
w: ||||
 [Ec]2 [EG]>[FA] [GB]3 [GB] | [GB]4 A4 | d2 c>A F2 [=B,FA]2 | [EG]6 z2 | [EG]2 E>[DF] [EG]2 [Ec]2 | %13
w: |||||
 [Ge]4 [EGc]4 | e2 d>c =B2 B2 | c4- [Fc]2 G2 | c2 A>G F2 d2 | c4 A2 A>A | d2 c2 A2 F2 | %19
w: ||||||
 [EG]6 [FA]>[GB] | [Ac]2 [FA]>[GB] [Ac]2 [FA]2 | [Fd]4 [Ff]2 [Fd]>[Fd] | [Fc]2 [FA]2 [EG]3 F | %23
w: ||||
 F6 z2 |] %24
w: |
V:2
 [F,A,F]2 [F,CF]>[F,B,E] [F,A,]2 [F,B,F]2 | [F,A,F]4 [F,CF]2 [F,CF]>[F,CF] | %2
 [C,C]2 [C,C]2 [C,G,]2 [C,C]2 | [F,C]6 [F,C]>[F,C] | [F,C]2 [F,C]>[F,C] [F,C]2[K:treble] [F,F]2 | %5
 [F,F]4 [F,CF]2 [F,CF]>[F,CF] | [G,CE]2 [G,EG]2 [G,DG]2 [G,=B,F]2 | [C,C]6 z2 | %8
 [C,C]2 [C,C]>[C,C] [C,C]3 [C,C] | [C,C]4[K:treble] [F,CF]4 | %10
 [B,F]2 [A,CF]>[K:bass][F,CF] [D,C]2 G,,2 | [C,C]6 z2 | [C,C]2 [C,C]>[C,C] [C,C]2 [C,G,]2 | %13
 [C,C]4 C,4 | [G,CG]2 [G,=B,G]>[G,CG] [G,DG]2 [G,F]2 | G,4 A,2 B,2 | %16
 [F,A,F]2 [F,CF]>[F,B,E] [F,A,]2[K:treble] [F,B,F]2 | [F,A,F]4 [F,CF]2 [F,CF]>[F,CF] | %18
 [B,F]2 [A,CF]2[K:bass] [F,CF]2 [D,=B,]2 | [C,C]6 [C,C]>[C,C] | [F,C]2 [F,C]>[F,C] [F,C]2 [F,C]2 | %21
 [B,,B,]4 [B,,D]2 [B,,B,]2 | [C,A,]2 [C,C]2 [C,B,]3 [F,A,] | [F,A,]6 z2 |] %24
V:3
 x8 | x8 | x8 | x8 | x8 | x8 | x8 | x8 | x8 | x8 | x8 | x8 | x8 | x8 | x8 | E4 z4 | x8 | x8 | x8 | %19
 x8 | x8 | x8 | x8 | x8 |] %24
V:4
 x8 | x8 | x8 | x8 | x6[K:treble] x2 | x8 | x8 | x8 | x8 | x4[K:treble] x4 | x7/2[K:bass] x9/2 | %11
 x8 | x8 | x8 | x8 | C,6 z2 | x6[K:treble] x2 | x8 | x4[K:bass] x4 | x8 | x8 | x8 | x8 | x8 |] %24

